wp-content/themes/watts/images/ico-email-white.svg

<svg height="33" viewBox="0 0 43.8 33" width="43.8" xmlns="http://www.w3.org/2000/svg"><path d="m42.7 0h-41.6a1.11 1.11 0 0 0 -1.1 1.1v30.8a1.11 1.11 0 0 0 1.1 1.1h41.6a1.11 1.11 0 0 0 1.1-1.1v-30.8a1.11 1.11 0 0 0 -1.1-1.1zm-28.9 17.6 4.8 4.4a4.59 4.59 0 0 0 3.3 1.5 4.22 4.22 0 0 0 3.2-1.5l4.9-4.5 10.5 13.3h-37.1zm-11.6 11.2v-21.9l10 9.2zm29.4-12.7 10-9.2v21.9zm10-13.9v1.7l-18 16.6a2.11 2.11 0 0 1 -3.4 0l-18-16.6v-1.7z" fill="#fff"/></svg>

<svg id="Capa_1" data-name="Capa 1" xmlns="http://www.w3.org/2000/svg" width="43.8" height="33" viewBox="0 0 43.8 33">
  <defs>
    <style>
      .cls-1 {
        fill: #fff;
      }
    </style>
  </defs>
  <title>ico-email-white</title>
  <path class="cls-1" d="M42.7,0H1.1A1.11,1.11,0,0,0,0,1.1V31.9A1.11,1.11,0,0,0,1.1,33H42.7a1.11,1.11,0,0,0,1.1-1.1V1.1A1.11,1.11,0,0,0,42.7,0ZM13.8,17.6,18.6,22a4.59,4.59,0,0,0,3.3,1.5A4.22,4.22,0,0,0,25.1,22L30,17.5,40.5,30.8H3.4ZM2.2,28.8V6.9l10,9.2ZM31.6,16.1l10-9.2V28.8Zm10-13.9V3.9l-18,16.6a2.11,2.11,0,0,1-3.4,0L2.2,3.9V2.2Z"/>
</svg>
